/* XPM */
static char *cdb988e0325246b3964f4806a8216a64bj49Cbbsmh5KmjVq[] = {
/* columns rows colors chars-per-pixel */
"32 32 6 1 ",
"  c None",
". c #00EDFF",
"X c #3494CB",
"o c #FAFA82",
"O c #E17B50",
"+ c white",
/* pixels */
"                                ",
"                                ",
"                                ",
"                                ",
"                                ",
"                                ",
"                                ",
"          .Xo                   ",
"         ...Xo                  ",
"        ...XXoOoo               ",
"       ...XXoOOoooo             ",
"       X.XXoO     oo            ",
"       oXXoO       o            ",
"        ooO         o           ",
"        OO          o           ",
"        oo          o           ",
"        oo          O           ",
"        oo         OO           ",
"        oo         O            ",
"         o        OO            ",
"         oo      OO             ",
"          oo    OO              ",
"            oooOO               ",
"                                ",
"                                ",
"                                ",
"                                ",
"                                ",
"                                ",
"                                ",
"                                ",
"                                "
};
