/* XPM */
static char *_4cf420f5b29400ed9d39b8afd8107a5pxL1c1PRFzas7hsV[] = {
/* columns rows colors chars-per-pixel */
"32 32 12 1 ",
"  c None",
". c #17394A",
"X c #0C1317",
"o c #FCA89D",
"O c #4C63E0",
"+ c #1E1B80",
"@ c #472138",
"# c #70162B",
"$ c #A84111",
"% c #A5B5D4",
"& c #31314B",
"* c white",
/* pixels */
"                                ",
"                                ",
"                                ",
"             .....              ",
"            .......             ",
"           ..XX.....            ",
"           .XXXX.....           ",
"           .XXXX....            ",
"           .XoXX....            ",
"           .XXXX....            ",
"           ..oo....             ",
"            .....X..OO          ",
"           .X...X..OOO          ",
"          +O......OOOOO         ",
"          +OO....OOOOOO         ",
"          +OOO.OOOOOOOO         ",
"          ++OOOOOOO  OOO        ",
"          ++@###@@@  OOO        ",
"         @@OOOOOOOOO  $$        ",
"        @@@OOOOOOOOO  $$$       ",
"        @%@OOOOOOOOOO $$$       ",
"        %% @OOOOOOO## $%$       ",
"       %%% @@@OOO##### %$       ",
"      %%% @@@@@  #####%%        ",
"     %%   @@@@@   ####%%        ",
"          @@@@     ##%%%        ",
"          @@@      ##%%         ",
"          &&&       %%#         ",
"         &&&&       $$$         ",
"        &&&&&       $$$         ",
"                    $$$         ",
"                                "
};
