/* XPM */
static char *_aab99ce00ac4252c5dbef86d67d3d94oewbUCxMHejvl5lC[] = {
/* columns rows colors chars-per-pixel */
"32 32 3 1 ",
"  c #72C37A",
". c #68B671",
"X c white",
/* pixels */
"                                ",
"                                ",
"                                ",
"                                ",
"   .                            ",
"   .   .                        ",
"   .. ..                        ",
"    . .                         ",
"                                ",
"                                ",
"                                ",
"                                ",
"                                ",
"                                ",
"                                ",
"                                ",
"                                ",
"         ..  ..                 ",
"      ..  . ..                  ",
"       .. . .                   ",
"                                ",
"                      .         ",
"                      ..  ..    ",
"                   ..  . ..     ",
"                    .. . .      ",
"                                ",
"                                ",
"                                ",
"                                ",
"                                ",
"                                ",
"                                "
};
