/* XPM */
static char *c07de6110b264803b640d028a54046f3SI2o5MhTiZrY4inX[] = {
/* columns rows colors chars-per-pixel */
"32 32 4 1 ",
"  c #6AB7D7",
". c #A6CDC9",
"X c #CEE2D6",
"o c white",
/* pixels */
"                                ",
"                                ",
"                                ",
"                                ",
"                                ",
"                                ",
"                                ",
"                       .X.      ",
"                                ",
"                                ",
"       . .                      ",
"                                ",
"                                ",
"                                ",
"                                ",
"                                ",
"                                ",
"                                ",
"                                ",
"                                ",
"                                ",
"                                ",
"                                ",
"             X.. .              ",
"                                ",
"                                ",
"                                ",
"                                ",
"                                ",
"                                ",
"                                ",
"                                "
};
